X:1
T: Royal Albert
N:
C:
S:aka "Prince of Wales Contre Dance"
A:
O:
R:
M:6/8
K:G
I:speed 150
%W: A
% voice 1 (1 lines, 45 notes)
K:G
M:6/8
L:1/16
D2 |G3 A G2 B3 A G2 B d3 d2 d4 c2 B3 d g2 d4 c2 B3 c A2 G4 D2 |G3 A G2 B3 A G2 B d3 d2 d4 g2 f2 g2 f2 e2 d2 ^c2 e2 d2 d2 d4 f g |
%W: B
% voice 1 (1 lines, 41 notes)
a4 d2 c'4 b2 a2 g2 f2 g2 f2 g2 a4 d2 c'4 b2 a2 g2 f2 g4 d2 |e2 c'2 c'2 d2 b2 b2 c2 a2 a2 B2 g2 g2 c2 B2 A2 d4 F2 A G3 G2 G4 z2 |
%W: C1
% voice 1 (1 lines, 36 notes)
B6 A3 G A2 A3 G G2 G6 d6 c3 B c2 c3 B B2 B4 g2 |g4 f2 f4 e2 e4 d2 d4 c2 B3 c d2 d3 c B2 B A3 A2 A4 z2 |
%W: C2
% voice 1 (1 lines, 36 notes)
B6 A3 G A2 A3 G G2 G6 d6 c3 B c2 c3 B B2 B4 g2 |g4 f2 f4 e2 e4 d2 d4 c2 B3 c d2 d3 c B2 B A3 A2 A4 d2 |
%W: D
% voice 1 (1 lines, 44 notes)
g2 g2 g2 g2 d2 B2 e2 d2 d2 d2 f2 a2 c'2 c'2 c'2 c'2 a2 f2 a g3 g2 g4 d2 |e2 c'2 c'2 d2 b2 b2 c2 a2 a2 B2 g2 g2 c2 B2 A2 d4 F2 A G3 G2 G4 ||
